svg/fluentui-system-icons/ic_fluent_text_align_distributed_evenly_20_filled.svg

<svg width="20" height="20" viewBox="0 0 20 20" fill="none" xmlns="http://www.w3.org/2000/svg">
<path d="M2 3.5C2 3.08579 2.33579 2.75 2.75 2.75H17.25C17.6642 2.75 18 3.08579 18 3.5C18 3.91421 17.6642 4.25 17.25 4.25H2.75C2.33579 4.25 2 3.91421 2 3.5ZM2 8.5C2 8.08579 2.33579 7.75 2.75 7.75H17.25C17.6642 7.75 18 8.08579 18 8.5C18 8.91421 17.6642 9.25 17.25 9.25H2.75C2.33579 9.25 2 8.91421 2 8.5ZM4.56066 15.25H15.4393L14.7197 15.9697C14.4268 16.2626 14.4268 16.7374 14.7197 17.0303C15.0126 17.3232 15.4874 17.3232 15.7803 17.0303L17.7803 15.0303C18.0732 14.7374 18.0732 14.2626 17.7803 13.9697L15.7803 11.9697C15.4874 11.6768 15.0126 11.6768 14.7197 11.9697C14.4268 12.2626 14.4268 12.7374 14.7197 13.0303L15.4393 13.75H4.56066L5.28033 13.0303C5.57322 12.7374 5.57322 12.2626 5.28033 11.9697C4.98744 11.6768 4.51256 11.6768 4.21967 11.9697L2.21967 13.9697C1.92678 14.2626 1.92678 14.7374 2.21967 15.0303L4.21967 17.0303C4.51256 17.3232 4.98744 17.3232 5.28033 17.0303C5.57322 16.7374 5.57322 16.2626 5.28033 15.9697L4.56066 15.25Z" fill="#212121"/>
</svg>

<svg xmlns="http://www.w3.org/2000/svg" width="20" height="20"><path d="M2 3.5a.75.75 0 0 1 .75-.75h14.5a.75.75 0 0 1 0 1.5H2.75A.75.75 0 0 1 2 3.5Zm0 5a.75.75 0 0 1 .75-.75h14.5a.75.75 0 0 1 0 1.5H2.75A.75.75 0 0 1 2 8.5Zm2.56 6.75h10.88l-.72.72a.75.75 0 1 0 1.06 1.06l2-2a.75.75 0 0 0 0-1.06l-2-2a.75.75 0 1 0-1.06 1.06l.72.72H4.56l.72-.72a.75.75 0 1 0-1.06-1.06l-2 2a.75.75 0 0 0 0 1.06l2 2a.75.75 0 0 0 1.06-1.06l-.72-.72Z"/></svg>
